X:1
T:Energy, SM
T:Energy, SM
T:William Henry Monk, 1861
T:Public Domain Courtesy of the Cyber Hymnal™
C:William Henry Monk, 1861
Z:Public Domain
Z:Courtesy of the Cyber Hymnal™
%%score ( 1 2 ) ( 3 4 )
L:1/8
Q:1/4=115
M:4/4
K:G
V:1 treble 
V:2 treble 
V:3 bass 
V:4 bass 
V:1
 [Dd]2 | [Fc]2 [GB]2 [EA]2 (Bc) | [DB]6 [DB]2 | [DA]2 D2 [DE]2 [^CE]2 | D6 D2 | %5
 [CE]2 [CF]2 [DG]2 [DB]2 | [EA]2 [EA]2 [^DB]2 [EB]2 | [Ec]2 [GB]2 [GA]2 [FA]2 | [DG]6 |] %9
V:2
 x2 | x6 D2 | x8 | x2 D2 x4 | D6 D2 | x8 | x8 | x8 | x6 |] %9
V:3
 [G,B,]2 | [D,A,]2 [E,G,]2 [C,G,]2 [D,F,]2 | [G,,G,]6 G,2 | [D,F,]2 [B,,F,]2 [G,,B,]2 [A,,A,]2 | %4
 [D,F,]6 [B,,G,]2 | [B,,G,]2 [A,,A,]2 [B,,G,]2 [G,,G,]2 | [C,G,]2 [C,F,]2 [B,,F,]2 [E,^G,]2 | %7
 [A,,A,]2 [B,,D]2 [C,E]2 (DC) | [G,,B,]6 |] %9
V:4
 x2 | x8 | x6 G,2 | x8 | x8 | x8 | x8 | x6 C,2 | x6 |] %9

